X:1
T:Candy Kisses
T:Candy kisses
T:Stephen Dorff, Milton Brown, and Snuff Garrett
C:George Morgan
Z:All Rights Reserved
L:1/4
Q:1/4=60
M:4/4
K:Eb
V:1 treble nm="Electric Piano"
%%MIDI program 4
V:1
"_Medium country" z2"Bb7" G B |:"Eb" G E3- |"Eb7" E2 c e |"Ab" c2 A2- | A e e c |"Eb" B4- | %6
w: Can- dy|kiss- es|* wrapped in|pa- per|* mean more to|you|
w: |cas- tle|* out of|dreams dear|* I thought that|you|
 B G"F7" G/F/ E |"Bb7" F4- | F2 G B |"Eb" G E3- |"Eb7" E2 c e |"Ab" c2 A2- | A e e c |"Eb" B2 G2- | %14
w: * than an- y of|mine|* can- dy|kiss- es|* wrapped in|pa- per|* you'd rath- er|have them|
w: * were build- ing one|too|* now my|cas- tles|* all have|fall- en|* and I am|left *|
 G E"Bb7" D/E/ F |"Eb" E4- |"Eb7" E2 F G |"Ab" A2 A2- | A2 c e |"Eb" c2 B2- | B2 G _G | %21
w: * * an- y old|time|* you dont|mean it|* when you|whis- per|* those sweet|
w: * a lone * and|blue|* Once my|heart was|* filled with|glad- ness|* now theres|
"F7" F2 F2- | F2 =A c |"Bb7" B4- | B z G B |"Eb" G E3- |"Eb7" E2 c e |"Ab" c2 A2- | A e e c | %29
w: love words|* in my|ear|* can- dy|kiss- es|* wrapped in|pap- er|* mean more to|
w: sad- ness|* on- ly|tears||||||
"Eb" B4- | B E"Bb7" D F |1"Eb" E4- |"Ab" E"Eb" G"Bb7" G B :|2"Eb" E4- |"Eb" E2 z2 |] %35
w: you|* than mine do|dear|* I built a|dear||
w: ||||||

